src/pos-icons/screw-flat-top.svg

<svg height="24" viewBox="0 0 24 24" width="24" xmlns="http://www.w3.org/2000/svg"><path d="m13.5 17v2l-1.5 3-1.5-3zm1-10.7-1 .7v-1h-3v3l-1 .7v1l5-3.3zm0 4-1 .7v-2l-3 2v2l-1 .7v1l5-3.3zm0 4-1 .7v-2l-3 2v2l-1 .7v1l5-3.3zm-6.5-12.3s-1 0-1 1l3 2h4l3-2s0-1-1-1-8 0-8 0z"/></svg>

<?xml version="1.0" encoding="UTF-8"?><!DOCTYPE svg PUBLIC "-//W3C//DTD SVG 1.1//EN" "http://www.w3.org/Graphics/SVG/1.1/DTD/svg11.dtd"><svg xmlns="http://www.w3.org/2000/svg" xmlns:xlink="http://www.w3.org/1999/xlink" version="1.1" id="mdi-screw-flat-top" width="24" height="24" viewBox="0 0 24 24"><path d="M13.5,17V19L12,22L10.5,19L13.5,17M14.5,6.3L13.5,7V6H10.5V9L9.5,9.7V10.7L14.5,7.4V6.3M14.5,10.3L13.5,11V9L10.5,11V13L9.5,13.7V14.7L14.5,11.4V10.3M14.5,14.3L13.5,15V13L10.5,15V17L9.5,17.7V18.7L14.5,15.4V14.3M8,2C8,2 7,2 7,3L10,5H14L17,3C17,3 17,2 16,2C15,2 8,2 8,2Z" /></svg>
